dist/assets/uwm-icons/icon_call_online.svg

<?xml version="1.0" encoding="UTF-8"?>
<svg width="24px" height="24px" viewBox="0 0 24 24" version="1.1" xmlns="http://www.w3.org/2000/svg" xmlns:xlink="http://www.w3.org/1999/xlink">
    <!-- Generator: Sketch 48.2 (47327) - http://www.bohemiancoding.com/sketch -->
    <title>icon_call_online</title>
    <desc>Created with Sketch.</desc>
    <defs></defs>
    <g id="Icons" stroke="none" stroke-width="1" fill="none" fill-rule="evenodd">
        <g id="icon_call_online">
            <rect id="Rectangle" fill="#FFFFFF" x="0" y="0" width="24" height="24"></rect>
            <path d="M11.6998699,7.6489165 C11.6998699,7.6489165 11.6998699,7.6489165 11.6998699,7.64936564 L11.6998699,7.6489165 Z M10.1007493,4.18785718 L8.55684507,4.96127324 C7.28255255,5.59949868 6.74462337,7.19843084 7.35761243,8.52518522 L11.8918334,18.3379576 C12.5052538,19.664712 14.0413932,20.2247874 15.314823,19.5865619 L16.8587272,18.8131459 L15.3083523,15.4580832 L14.0539032,16.0868767 C13.3891487,16.419239 12.5885099,16.1272992 12.268427,15.4351771 L9.77678389,10.0432725 C9.45928921,9.35609097 9.73580292,8.52428694 10.3936554,8.18878067 L11.6528496,7.54651298 L10.1007493,4.18785718 Z M14.2087681,21 C12.8417292,21 11.5281812,20.2023305 10.8970742,18.8365011 L6.36242189,9.02372867 C5.4854291,7.12522131 6.2550086,4.83820936 8.07801477,3.9251113 L9.72156743,3.1018409 C10.2150646,2.855264 10.8103671,3.07174864 11.0476254,3.58601193 L12.6954918,7.15127132 C12.9310246,7.66149237 12.725257,8.2795066 12.2369363,8.52877832 L10.8798191,9.2213495 C10.764641,9.27973747 10.716758,9.42480913 10.7719744,9.54472904 L13.2636175,14.9370828 C13.3192654,15.057901 13.459032,15.1082045 13.5750729,15.0502657 L14.9291705,14.3720669 C15.423099,14.1245917 16.0179702,14.3419746 16.2556598,14.8557888 L17.9018007,18.4183534 C18.1394904,18.9326167 17.9307031,19.5519783 17.4372059,19.7994535 L15.7936533,20.6227239 C15.2824696,20.8787327 14.7415208,21 14.2087681,21 Z" id="Fill-143" fill="#000000"></path>
        </g>
    </g>
</svg>

<svg width="24" height="24" xmlns="http://www.w3.org/2000/svg"><g fill="none" fill-rule="evenodd"><path fill="#FFF" d="M0 0h24v24H0z"/><path d="M11.7 7.649zm-1.6-3.461l-1.543.773c-1.274.638-1.812 2.237-1.2 3.564l4.535 9.813c.613 1.327 2.15 1.887 3.423 1.249l1.544-.774-1.55-3.355-1.255.629c-.665.332-1.465.04-1.786-.652l-2.491-5.392c-.318-.687-.041-1.519.617-1.854l1.259-.642-1.552-3.36zM14.21 21c-1.367 0-2.68-.798-3.312-2.163L6.362 9.024c-.877-1.899-.107-4.186 1.716-5.099l1.644-.823a.978.978 0 0 1 1.326.484l1.647 3.565c.236.51.03 1.129-.458 1.378l-1.357.692a.248.248 0 0 0-.108.324l2.492 5.392a.23.23 0 0 0 .311.113l1.354-.678a.978.978 0 0 1 1.327.484l1.646 3.562c.237.515.029 1.134-.465 1.381l-1.643.824a3.53 3.53 0 0 1-1.585.377z" fill="#000"/></g></svg>
